X: 1182
T: THE SOCIABLE
B: Oliver Ditson "The Boston Collection of Instrumental Music" 1910 p.118 #2
F: http://conquest.imslp.info/files/imglnks/usimg/8/8f/IMSLP175643-PMLP309456-bostoncollection00bost_bw.pdf
%: 2012 John Chambers <jc:trillian.mit.edu>
M: 6/8
L: 1/8
K: D
D |\
D2D D2D | DDD D2A | d2d e2f | gfe a2f |\
D2D D2D | DDD D2A | d2d e2f | gfe d2 H|]
f |\
a2a fga | fga b3 | g2g efg | efg a3 |\
f2f def | def g3 | b2b agf | efd cBA |
a2a fga | fga b3 | g2g efg | efg a3 |\
f2f def | def g3 | b2b agf | edc "^da Capo"d2 |]
%%begintext align
Forward four and back.
Half right and left.
Side couples the same.
Chassez all, and change partners.
Promenade half round.
%%endtext

%%sep 1 1 500
%%sep 1 1 500
